X:0647
T:The Fife Hunt.
M:C|
L:1/8
Q:1/2=104
I: :: ||
Z:Jack Campin * www.campin.me.uk * 2009
K:D
g|fd  Td2AFTF2|Ee2d e2e(g|f)d Td2AF TF2|Dd2c d2d:|
<end>
<start>
